pix_core/i/backup.svg

<!DOCTYPE svg PUBLIC "-//W3C//DTD SVG 1.1//EN" "http://www.w3.org/Graphics/SVG/1.1/DTD/svg11.dtd" [
	<!ENTITY ns_flows "http://ns.adobe.com/Flows/1.0/">
]><svg xmlns="http://www.w3.org/2000/svg" width="16" height="16" viewBox="0 -0.4 16 16" preserveAspectRatio="xMinYMid meet" overflow="visible" enable-background="new 0 -0.4 16 16"><path d="M16 8.6v6c0 .5-.5 1-1 1h-14c-.5 0-1-.5-1-1v-6c0-.5.5-1 1-1h1c.5 0 1 .5 1 1v4h10v-4c0-.5.5-1 1-1h1c.5 0 1 .4 1 1zm-3.6-4.6l-3.7-3.7c-.1-.2-.4-.3-.7-.3-.2 0-.5.1-.7.3l-3.7 3.7c-.4.4-.4 1 0 1.4l.7.7c.4.4 1 .4 1.4 0l.8-.8v4.2c0 .5.5 1.1 1 1.1h1c.6 0 1-.5 1-1.1v-4.2l.8.8c.4.4 1 .4 1.4 0l.7-.7c.4-.4.4-1 0-1.4z" fill="#888"/></svg>

<?xml version="1.0" encoding="utf-8"?>
<!-- Generator: Adobe Illustrator 15.1.0, SVG Export Plug-In  -->
<!DOCTYPE svg PUBLIC "-//W3C//DTD SVG 1.1//EN" "http://www.w3.org/Graphics/SVG/1.1/DTD/svg11.dtd" [
	<!ENTITY ns_flows "http://ns.adobe.com/Flows/1.0/">
]>
<svg version="1.1"
	 xmlns="http://www.w3.org/2000/svg" xmlns:xlink="http://www.w3.org/1999/xlink" xmlns:a="http://ns.adobe.com/AdobeSVGViewerExtensions/3.0/"
	 x="0px" y="0px" width="16px" height="16px" viewBox="0 -0.4 16 16" style="overflow:visible;enable-background:new 0 -0.4 16 16;"
	 xml:space="preserve" preserveAspectRatio="xMinYMid meet">
<defs>
</defs>
<path style="fill:#29a1c4;" d="M16,8.6v6c0,0.5-0.5,1-1,1h-1H2H1c-0.5,0-1-0.5-1-1v-6c0-0.5,0.5-1,1-1h1c0.5,0,1,0.5,1,1v4h10v-4
	c0-0.5,0.5-1,1-1h1C15.5,7.6,16,8,16,8.6z M12.4,4L8.7,0.3C8.6,0.1,8.3,0,8,0C7.8,0,7.5,0.1,7.3,0.3L3.6,4c-0.4,0.4-0.4,1,0,1.4
	l0.7,0.7c0.4,0.4,1,0.4,1.4,0l0.8-0.8v4.2c0,0.5,0.5,1.1,1,1.1h1c0.6,0,1-0.5,1-1.1V5.3l0.8,0.8c0.4,0.4,1,0.4,1.4,0l0.7-0.7
	C12.8,5,12.8,4.4,12.4,4z"/>
</svg>
